packages/assets/static/images/icons/stairs.svg

<svg width="24" height="24" viewBox="0 0 24 24" xmlns="http://www.w3.org/2000/svg">
<g clip-path="url(#clip0_2076_2455)">
<path d="M23.6249 5.25C23.6249 5.54837 23.5064 5.83452 23.2954 6.0455C23.0844 6.25647 22.7983 6.375 22.4999 6.375H18.3749V9.75C18.3749 10.0484 18.2564 10.3345 18.0454 10.5455C17.8344 10.7565 17.5483 10.875 17.2499 10.875H13.1249V14.25C13.1249 14.5484 13.0064 14.8345 12.7954 15.0455C12.5844 15.2565 12.2983 15.375 11.9999 15.375H7.87491V18.75C7.87491 19.0484 7.75638 19.3345 7.5454 19.5455C7.33443 19.7565 7.04828 19.875 6.74991 19.875H1.49991C1.20154 19.875 0.915392 19.7565 0.704413 19.5455C0.493435 19.3345 0.374908 19.0484 0.374908 18.75C0.374908 18.4516 0.493435 18.1655 0.704413 17.9545C0.915392 17.7435 1.20154 17.625 1.49991 17.625H5.62491V14.25C5.62491 13.9516 5.74343 13.6655 5.95441 13.4545C6.16539 13.2435 6.45154 13.125 6.74991 13.125H10.8749V9.75C10.8749 9.45163 10.9934 9.16548 11.2044 8.9545C11.4154 8.74353 11.7015 8.625 11.9999 8.625H16.1249V5.25C16.1249 4.95163 16.2434 4.66548 16.4544 4.4545C16.6654 4.24353 16.9515 4.125 17.2499 4.125H22.4999C22.7983 4.125 23.0844 4.24353 23.2954 4.4545C23.5064 4.66548 23.6249 4.95163 23.6249 5.25Z"/>
</g>
<defs>
<clipPath id="clip0_2076_2455">
<rect width="24" height="24"/>
</clipPath>
</defs>
</svg>

<svg viewBox="0 0 24 24" xmlns="http://www.w3.org/2000/svg" aria-hidden="true" fill="currentColor" height="24px" width="24px"><g clip-path="url(#a)"><path d="M23.625 5.25A1.125 1.125 0 0 1 22.5 6.375h-4.125V9.75a1.125 1.125 0 0 1-1.125 1.125h-4.125v3.375A1.125 1.125 0 0 1 12 15.375H7.875v3.375a1.125 1.125 0 0 1-1.125 1.125H1.5a1.125 1.125 0 1 1 0-2.25h4.125V14.25a1.125 1.125 0 0 1 1.125-1.125h4.125V9.75A1.125 1.125 0 0 1 12 8.625h4.125V5.25a1.125 1.125 0 0 1 1.125-1.125h5.25a1.125 1.125 0 0 1 1.125 1.125"/></g><defs><clipPath id="a"><path d="M0 0h24v24H0z"/></clipPath></defs></svg>
